assets/images/about.svg

<svg width="14" height="34" viewBox="0 0 14 34" fill="none" xmlns="http://www.w3.org/2000/svg">
<path d="M4.99988 2L5.99988 2V2H4.99988ZM8.99988 2L9.99988 2V2L8.99988 2ZM8.99985 25L7.99985 25C7.99985 25.2652 8.1052 25.5196 8.29274 25.7071C8.48028 25.8946 8.73463 26 8.99985 26V25ZM12.9998 25L13.7998 25.6C14.0271 25.297 14.0637 24.8916 13.8943 24.5528C13.7249 24.214 13.3786 24 12.9998 24V25ZM6.99985 33L6.19985 33.6C6.3887 33.8518 6.68509 34 6.99985 34C7.3146 34 7.61099 33.8518 7.79985 33.6L6.99985 33ZM0.999847 25V24C0.621075 24 0.274812 24.214 0.10542 24.5528C-0.0639718 24.8916 -0.0274159 25.297 0.199847 25.6L0.999847 25ZM4.99985 25V26C5.55213 26 5.99985 25.5523 5.99985 25L4.99985 25ZM4.99988 2C5.99988 2 5.99988 2.00097 5.99988 2.00195C5.99987 2.00226 5.99987 2.00324 5.99987 2.00388C5.99986 2.00516 5.99986 2.00643 5.99985 2.00769C5.99983 2.01022 5.9998 2.0127 5.99976 2.01515C5.99968 2.02004 5.99957 2.02478 5.99942 2.02937C5.99912 2.03856 5.99869 2.04718 5.99815 2.05529C5.99707 2.07147 5.99554 2.08577 5.99373 2.09845C5.99013 2.12365 5.98522 2.14374 5.97981 2.15998C5.96782 2.19593 5.95415 2.20994 5.95698 2.20711C5.95982 2.20427 6.00831 2.15545 6.15985 2.10493C6.31624 2.0528 6.58023 2 6.99988 2V0C5.84573 0 5.04645 0.289213 4.54277 0.792893C4.29561 1.04006 4.15693 1.30407 4.08244 1.52752C4.04578 1.63751 4.02525 1.73572 4.01383 1.81561C4.00812 1.85564 4.00464 1.89143 4.00258 1.92225C4.00155 1.93768 4.00088 1.95192 4.00046 1.96489C4.00025 1.97138 4.0001 1.97755 4.00001 1.9834C3.99996 1.98633 3.99993 1.98918 3.99991 1.99194C3.9999 1.99333 3.99989 1.99469 3.99988 1.99603C3.99988 1.9967 3.99988 1.9977 3.99988 1.99803C3.99988 1.99902 3.99988 2 4.99988 2ZM6.99988 2C7.41953 2 7.68351 2.0528 7.8399 2.10493C7.99144 2.15545 8.03993 2.20427 8.04277 2.20711C8.04561 2.20994 8.03193 2.19593 8.01994 2.15998C8.01453 2.14374 8.00962 2.12365 8.00602 2.09845C8.00421 2.08577 8.00268 2.07147 8.0016 2.05529C8.00106 2.04718 8.00063 2.03856 8.00034 2.02937C8.00019 2.02478 8.00007 2.02004 8 2.01515C7.99996 2.0127 7.99993 2.01022 7.99991 2.00769C7.9999 2.00643 7.99989 2.00516 7.99989 2.00388C7.99988 2.00324 7.99988 2.00227 7.99988 2.00195C7.99988 2.00098 7.99988 2 8.99988 2C9.99988 2 9.99988 1.99902 9.99988 1.99803C9.99988 1.9977 9.99987 1.9967 9.99987 1.99603C9.99986 1.99469 9.99986 1.99333 9.99985 1.99194C9.99982 1.98918 9.99979 1.98633 9.99974 1.9834C9.99965 1.97755 9.99951 1.97138 9.9993 1.96489C9.99888 1.95192 9.9982 1.93768 9.99717 1.92225C9.99512 1.89142 9.99164 1.85564 9.98592 1.81561C9.97451 1.73572 9.95397 1.63751 9.91731 1.52752C9.84283 1.30407 9.70415 1.04006 9.45698 0.792893C8.9533 0.289213 8.15402 0 6.99988 0V2ZM7.99988 2L7.99985 25L9.99985 25L9.99988 2L7.99988 2ZM8.99985 26H12.9998V24H8.99985V26ZM12.1998 24.4L6.19985 32.4L7.79985 33.6L13.7998 25.6L12.1998 24.4ZM7.79985 32.4L1.79985 24.4L0.199847 25.6L6.19985 33.6L7.79985 32.4ZM0.999847 26H4.99985V24H0.999847V26ZM5.99985 25L5.99988 2L3.99988 2L3.99985 25L5.99985 25Z" fill="#FAFAFA"/>
</svg>

<svg width="14" height="34" fill="none" xmlns="http://www.w3.org/2000/svg"><path d="M5 2h1-1zm4 0h1-1zm0 23H8a1 1 0 001 1v-1zm4 0l.8.6A1 1 0 0013 24v1zm-6 8l-.8.6a1 1 0 001.6 0L7 33zm-6-8v-1a1 1 0 00-.8 1.6L1 25zm4 0v1a1 1 0 001-1H5zM5 2c1 0 1 .001 1 .002v.006a.885.885 0 01-.006.09.352.352 0 01-.014.062c-.012.036-.026.05-.023.047.003-.003.051-.052.203-.102C6.316 2.053 6.58 2 7 2V0C5.846 0 5.046.29 4.543.793a1.881 1.881 0 00-.46.735A1.653 1.653 0 004 1.996v.002C4 1.999 4 2 5 2zm2 0c.42 0 .684.053.84.105.151.05.2.1.203.102.003.003-.011-.011-.023-.047a.352.352 0 01-.018-.105A.742.742 0 018 2.004v-.002C8 2.001 8 2 9 2s1-.001 1-.002v-.002-.004-.009a1.09 1.09 0 00-.014-.167 1.652 1.652 0 00-.069-.288 1.881 1.881 0 00-.46-.735C8.953.289 8.154 0 7 0v2zm1 0v23h2V2H8zm1 24h4v-2H9v2zm3.2-1.6l-6 8 1.6 1.2 6-8-1.6-1.2zm-4.4 8l-6-8-1.6 1.2 6 8 1.6-1.2zM1 26h4v-2H1v2zm5-1V2H4v23h2z" fill="#FAFAFA"/></svg>
